public/assets/img/material-icons/corporate_fare.svg

<svg height="24" viewBox="0 0 24 24" width="24" xmlns="http://www.w3.org/2000/svg"><path d="m12 7v-4h-10v18h20v-14zm-2 12h-6v-2h6zm0-4h-6v-2h6zm0-4h-6v-2h6zm0-4h-6v-2h6zm10 12h-8v-10h8zm-2-8h-4v2h4zm0 4h-4v2h4z"/></svg>

<svg xmlns="http://www.w3.org/2000/svg" width="24" height="24" viewBox="0 0 24 24"><path d="M12 7V3H2v18h20V7H12zm-2 12H4v-2h6v2zm0-4H4v-2h6v2zm0-4H4V9h6v2zm0-4H4V5h6v2zm10 12h-8V9h8v10zm-2-8h-4v2h4v-2zm0 4h-4v2h4v-2z"/></svg>
